polaris-icons/icons/newicons/FolderPlusMajor.svg

<svg width="20" height="20" viewBox="0 0 20 20" fill="none" xmlns="http://www.w3.org/2000/svg">
<path d="M4.75 5.5C4.05964 5.5 3.5 6.05964 3.5 6.75V13.25C3.5 13.9404 4.05964 14.5 4.75 14.5H10.75C11.1642 14.5 11.5 14.8358 11.5 15.25C11.5 15.6642 11.1642 16 10.75 16H4.75C3.23122 16 2 14.7688 2 13.25V6.75C2 5.23122 3.23122 4 4.75 4H6.76393C7.80556 4 8.75778 4.58851 9.22361 5.52016L9.39443 5.8618C9.43678 5.9465 9.52334 6 9.61803 6H15.25C16.7688 6 18 7.23122 18 8.75C18 9.16421 17.6642 9.5 17.25 9.5C16.8358 9.5 16.5 9.16421 16.5 8.75C16.5 8.05964 15.9404 7.5 15.25 7.5H9.61803C8.95518 7.5 8.34922 7.1255 8.05279 6.53262L7.88197 6.19098C7.67023 5.7675 7.2374 5.5 6.76393 5.5H4.75Z" fill="black"/>
<path d="M13 14C13 13.5858 13.3358 13.25 13.75 13.25H15.25V11.75C15.25 11.3358 15.5858 11 16 11C16.4142 11 16.75 11.3358 16.75 11.75V13.25H18.25C18.6642 13.25 19 13.5858 19 14C19 14.4142 18.6642 14.75 18.25 14.75H16.75V16.25C16.75 16.6642 16.4142 17 16 17C15.5858 17 15.25 16.6642 15.25 16.25V14.75H13.75C13.3358 14.75 13 14.4142 13 14Z" fill="black"/>
</svg>

<svg viewBox="0 0 20 20" fill="none" xmlns="http://www.w3.org/2000/svg"><path d="M4.75 5.5c-.69 0-1.25.56-1.25 1.25v6.5c0 .69.56 1.25 1.25 1.25h6a.75.75 0 0 1 0 1.5h-6a2.75 2.75 0 0 1-2.75-2.75v-6.5a2.75 2.75 0 0 1 2.75-2.75h2.014a2.75 2.75 0 0 1 2.46 1.52l.17.342a.25.25 0 0 0 .224.138h5.632a2.75 2.75 0 0 1 2.75 2.75.75.75 0 0 1-1.5 0c0-.69-.56-1.25-1.25-1.25h-5.632a1.75 1.75 0 0 1-1.565-.967l-.171-.342a1.25 1.25 0 0 0-1.118-.691h-2.014Z" fill="#000"/><path d="M13 14a.75.75 0 0 1 .75-.75h1.5v-1.5a.75.75 0 0 1 1.5 0v1.5h1.5a.75.75 0 0 1 0 1.5h-1.5v1.5a.75.75 0 0 1-1.5 0v-1.5h-1.5a.75.75 0 0 1-.75-.75Z" fill="#000"/></svg>
